static/images/bluetooth_stack_logo.svg

<svg fill="none" height="89" viewBox="0 0 134 89" width="134" xmlns="http://www.w3.org/2000/svg"><path d="m0 0h134v89h-134z" fill="#fff"/><path d="m73.1992 11.5996h48.8008v74.8008h-48.8008z" fill="#fff"/><g fill="#0082fc"><path d="m83.1097 67.5081h.3631c.1214.0076.2413-.0298.3369-.105.0421-.036.0754-.0811.0974-.1319s.0321-.1059.0295-.1612c0-.2625-.1663-.4069-.4638-.4069h-.3631zm.7525 1.0325-.4638-.8225h-.2887v.8444h-.2669v-2.0475h.6913c.0923-.0015.1841.0133.2712.0437.0788.0306.1514.075.2144.1313.0587.0562.1062.123.14.1969.0359.075.0538.1574.0525.2406.0025.1302-.0409.2572-.1225.3587-.0782.1055-.1889.1823-.315.2188l-.0875.0306.4812.8269zm-.4375-2.6994c-.2235-.001-.4451.0421-.6519.1269-.1963.0849-.3746.2067-.525.3588-.1504.1558-.2706.3383-.3544.5381-.1636.4222-.1636.8903 0 1.3125.0815.201.202.3838.3544.5381.1504.1521.3287.2739.525.3588.3049.1305.6421.1661.9676.1021.3254-.064.624-.2246.8568-.4609.1553-.1519.2761-.3355.3544-.5381.1636-.4222.1636-.8903 0-1.3125-.0805-.2016-.201-.3846-.3544-.5381-.1496-.1531-.3281-.275-.525-.3588-.2054-.0843-.4254-.1275-.6475-.1269zm0 3.6357c-.2602.0017-.5179-.0505-.7569-.1532-.2302-.1053-.4381-.2539-.6125-.4375-.1848-.1749-.3335-.3845-.4375-.6168-.1009-.2388-.153-.4955-.153-.7547 0-.2593.0521-.5159.153-.7547.1986-.4637.5662-.8343 1.0281-1.0369.2394-.1012.4971-.1518.7569-.1487.2612-.0019.52.0487.7613.1487.2312.1058.4405.2542.6168.4375.1823.1772.3306.3863.4375.6169.101.2388.153.4954.153.7547 0 .2592-.052.5159-.153.7547-.1058.2312-.2542.4405-.4375.6168-.1804.1819-.3951.3262-.6316.4246-.2366.0983-.4903.1488-.7465.1486"/><path d="m67.0004 69.5914c10.9375 0 18.5062-5.2062 18.5062-25.0906s-7.5468-25.0906-18.5062-25.0906-18.5063 5.2062-18.5063 25.0906 7.5688 25.0906 18.5063 25.0906zm-2.4019-25.0906-8.9731-8.9906 2.5987-2.625 7.1532 7.1706v-17.1281l12.9981 12.9937-8.5838 8.5794 8.5838 8.5794-12.9938 12.9937v-17.1281l-7.1312 7.1487-2.5988-2.625zm4.4319 12.6875 4.1475-4.1519-4.1475-4.1431zm0-25.4013 4.1475 4.1519-4.1475 4.1431z"/></g></svg>

<svg width="134" height="89" viewBox="0 0 134 89" fill="none" xmlns="http://www.w3.org/2000/svg">
<rect width="134" height="89" fill="white"/>
<rect x="73.1992" y="11.5996" width="48.8008" height="74.8008" fill="white"/>
<path d="M83.1097 67.5081H83.4728C83.5942 67.5157 83.7141 67.4783 83.8097 67.4031C83.8518 67.3671 83.8851 67.322 83.9071 67.2712C83.9291 67.2204 83.9392 67.1653 83.9366 67.11C83.9366 66.8475 83.7703 66.7031 83.4728 66.7031H83.1097V67.5081ZM83.8622 68.5406L83.3984 67.7181H83.1097V68.5625H82.8428V66.515H83.5341C83.6264 66.5135 83.7182 66.5283 83.8053 66.5587C83.8841 66.5893 83.9567 66.6337 84.0197 66.69C84.0784 66.7462 84.1259 66.813 84.1597 66.8869C84.1956 66.9619 84.2135 67.0443 84.2122 67.1275C84.2147 67.2577 84.1713 67.3847 84.0897 67.4862C84.0115 67.5917 83.9008 67.6685 83.7747 67.705L83.6872 67.7356L84.1684 68.5625L83.8622 68.5406ZM83.4247 65.8412C83.2012 65.8402 82.9796 65.8833 82.7728 65.9681C82.5765 66.053 82.3982 66.1748 82.2478 66.3269C82.0974 66.4827 81.9772 66.6652 81.8934 66.865C81.7298 67.2872 81.7298 67.7553 81.8934 68.1775C81.9749 68.3785 82.0954 68.5613 82.2478 68.7156C82.3982 68.8677 82.5765 68.9895 82.7728 69.0744C83.0777 69.2049 83.4149 69.2405 83.7404 69.1765C84.0658 69.1125 84.3644 68.9519 84.5972 68.7156C84.7525 68.5637 84.8733 68.3801 84.9516 68.1775C85.1152 67.7553 85.1152 67.2872 84.9516 66.865C84.8711 66.6634 84.7506 66.4804 84.5972 66.3269C84.4476 66.1738 84.2691 66.0519 84.0722 65.9681C83.8668 65.8838 83.6468 65.8406 83.4247 65.8412ZM83.4247 69.4769C83.1645 69.4786 82.9068 69.4264 82.6678 69.3237C82.4376 69.2184 82.2297 69.0698 82.0553 68.8862C81.8705 68.7113 81.7218 68.5017 81.6178 68.2694C81.5169 68.0306 81.4648 67.7739 81.4648 67.5147C81.4648 67.2554 81.5169 66.9988 81.6178 66.76C81.8164 66.2963 82.184 65.9257 82.6459 65.7231C82.8853 65.6219 83.143 65.5713 83.4028 65.5744C83.664 65.5725 83.9228 65.6231 84.1641 65.7231C84.3953 65.8289 84.6046 65.9773 84.7809 66.1606C84.9632 66.3378 85.1115 66.5469 85.2184 66.7775C85.3194 67.0163 85.3714 67.2729 85.3714 67.5322C85.3714 67.7914 85.3194 68.0481 85.2184 68.2869C85.1126 68.5181 84.9642 68.7274 84.7809 68.9037C84.6005 69.0856 84.3858 69.2299 84.1493 69.3283C83.9127 69.4266 83.659 69.4771 83.4028 69.4769" fill="#0082FC"/>
<path d="M67.0004 69.5914C77.9379 69.5914 85.5066 64.3852 85.5066 44.5008C85.5066 24.6164 77.9598 19.4102 67.0004 19.4102C56.041 19.4102 48.4941 24.6164 48.4941 44.5008C48.4941 64.3852 56.0629 69.5914 67.0004 69.5914ZM64.5985 44.5008L55.6254 35.5102L58.2241 32.8852L65.3773 40.0558V22.9277L78.3754 35.9214L69.7916 44.5008L78.3754 53.0802L65.3816 66.0739V48.9458L58.2504 56.0945L55.6516 53.4695L64.5985 44.5008ZM69.0304 57.1883L73.1779 53.0364L69.0304 48.8933V57.1883ZM69.0304 31.787L73.1779 35.9389L69.0304 40.082V31.787Z" fill="#0082FC"/>
</svg>
